icons/Gradle-Light.svg

<svg width="256" height="256" viewBox="0 0 256 256" fill="none" xmlns="http://www.w3.org/2000/svg">
<rect width="256" height="256" rx="60" fill="#F4F2ED"/>
<path d="M212.674 66.7949C207.14 61.2784 199.681 58.1265 191.868 58.0037C184.055 57.8809 176.5 60.7969 170.795 66.1368C170.513 66.3966 170.287 66.7119 170.132 67.063C169.977 67.4141 169.897 67.7933 169.896 68.177C169.885 68.5629 169.954 68.9468 170.097 69.3052C170.24 69.6636 170.455 69.9889 170.729 70.2611L174.524 74.0563C175.014 74.5436 175.662 74.8384 176.351 74.8867C177.04 74.9351 177.723 74.7338 178.276 74.3196C181.771 71.6907 186.133 70.4861 190.482 70.9492C194.831 71.4122 198.842 73.5084 201.705 76.8144C204.568 80.1203 206.07 84.3896 205.907 88.76C205.744 93.1304 203.929 97.2761 200.828 100.36C176.916 124.272 144.974 57.2519 72.5572 91.7163C71.3226 92.2898 70.2206 93.1135 69.3211 94.1352C68.4215 95.157 67.744 96.3544 67.3315 97.6517C66.919 98.949 66.7805 100.318 66.9248 101.671C67.0691 103.025 67.493 104.334 68.1697 105.515L80.6084 127.014C81.8996 129.248 84.0192 130.883 86.5078 131.565C88.9964 132.247 91.6534 131.92 93.9028 130.656L94.2099 130.415L93.9686 130.59L99.475 127.519C105.615 123.703 111.42 119.373 116.828 114.576C117.361 114.084 118.053 113.801 118.778 113.777C119.502 113.753 120.212 113.989 120.777 114.444C121.107 114.702 121.377 115.029 121.566 115.403C121.756 115.777 121.86 116.188 121.873 116.607C121.885 117.026 121.805 117.442 121.639 117.827C121.472 118.211 121.223 118.554 120.908 118.832C115.237 123.956 109.121 128.566 102.634 132.608H102.437L96.9302 135.702C93.3206 137.697 89.0739 138.201 85.0975 137.106C81.1212 136.012 77.7307 133.406 75.6505 129.844L63.8918 109.574C41.3397 125.61 27.6724 156.301 34.9777 195.109C35.0961 195.768 35.4422 196.364 35.9555 196.793C36.4688 197.222 37.1167 197.457 37.7857 197.457H51.1459C51.8459 197.452 52.5205 197.194 53.0448 196.73C53.5691 196.266 53.9077 195.628 53.9978 194.934C54.5941 190.2 56.8978 185.846 60.4766 182.689C64.0553 179.533 68.663 177.792 73.4348 177.792C78.2065 177.792 82.8142 179.533 86.3929 182.689C89.9717 185.846 92.2754 190.2 92.8717 194.934C92.9569 195.626 93.291 196.264 93.8117 196.728C94.3324 197.192 95.0041 197.451 95.7017 197.457H108.733C109.433 197.452 110.107 197.194 110.632 196.73C111.156 196.266 111.495 195.628 111.585 194.934C112.181 190.2 114.485 185.846 118.063 182.689C121.642 179.533 126.25 177.792 131.022 177.792C135.793 177.792 140.401 179.533 143.98 182.689C147.559 185.846 149.862 190.2 150.459 194.934C150.546 195.653 150.902 196.313 151.456 196.78C152.009 197.248 152.718 197.49 153.442 197.457H166.32C167.073 197.451 167.794 197.153 168.33 196.624C168.867 196.096 169.176 195.38 169.194 194.627C169.479 176.462 174.371 155.621 188.345 145.157C236.565 109.003 223.841 78.0271 212.674 66.7949ZM163.358 121.442L154.144 116.813C154.14 115.822 154.391 114.847 154.872 113.981C155.353 113.114 156.048 112.386 156.891 111.865C157.734 111.344 158.697 111.048 159.687 111.006C160.676 110.963 161.661 111.175 162.545 111.622C163.43 112.068 164.185 112.734 164.739 113.556C165.293 114.378 165.626 115.328 165.708 116.315C165.789 117.303 165.616 118.295 165.205 119.196C164.793 120.098 164.157 120.879 163.358 121.464V121.442Z" fill="#02303A"/>
</svg>

<svg xmlns="http://www.w3.org/2000/svg" width="256" height="256" fill="none" viewBox="0 0 256 256"><rect width="256" height="256" fill="#F4F2ED" rx="60"/><path fill="#02303A" d="M212.67 66.8a30.14 30.14 0 0 0-41.87-.66 2.8 2.8 0 0 0-.9 2.04 2.8 2.8 0 0 0 .83 2.08l3.8 3.8a2.9 2.9 0 0 0 3.75.26 17.26 17.26 0 0 1 22.55 26.04c-23.91 23.91-55.86-43.1-128.27-8.64a9.83 9.83 0 0 0-4.39 13.8l12.44 21.5a9.8 9.8 0 0 0 13.3 3.64l.3-.25-.24.18 5.5-3.07a128 128 0 0 0 17.36-12.94 3.02 3.02 0 0 1 4.74.82 2.85 2.85 0 0 1-.66 3.43 129 129 0 0 1-18.28 13.78h-.2l-5.5 3.1a15.8 15.8 0 0 1-21.28-5.87l-11.76-20.27c-22.55 16.04-36.22 46.73-28.91 85.54a2.85 2.85 0 0 0 2.8 2.35h13.37a2.9 2.9 0 0 0 2.85-2.53 19.6 19.6 0 0 1 38.87 0 2.9 2.9 0 0 0 2.83 2.53h13.03a2.9 2.9 0 0 0 2.85-2.53 19.6 19.6 0 0 1 38.88 0 2.86 2.86 0 0 0 2.98 2.53h12.88a2.9 2.9 0 0 0 2.87-2.83c.29-18.17 5.18-39 19.16-49.47 48.22-36.16 35.5-67.13 24.32-78.37m-49.31 54.64-9.22-4.63a5.78 5.78 0 1 1 9.22 4.65z"/></svg>
